X:225
T: NUN SCHUERZ DICH GRETLEIN
N: E0113A
O: Europa, Mitteleuropa, Deutschland, Norddeutschland
R: erzaehlendes Volks - Lied, Schalk -, Schelmen - Lied, betrogene Liebe
M: 4/4
L: 1/8
K: G
d2 | d2d2B2B2 | c4A2
A2 | B2B2G3G | A4z2
A2 | B2c2d2B2 | c4B2
B2 | d2d2cde2 | d4B2
d2 | e3dd2d2 | B6

@@@ Tune index: 3875
